!! 00000] TT[WS
!!!OTL: Zhaoxian nangou
!!!ARE: Asia, China, Shanxi Linxian
!! Ethnic Group: Han
!! WII, 151 (2)
!!!SCT: J0630
!!!YEM: Copyright 1995, estate of Helmut Schaffrath.
**kern
*ICvox
*Ivox
*M2/4
*k[f#c#g#]
*A:
{8ee
16ff#
16ee
8cc#
8ee
=1
8ee
4.b
=2
8aa
16ff#
16ee
8dd
8ee
=3
8a
8e
8e
16f#
16e}
=4
{8.a
16a
8a
8b
=5
8ee
4b
8a
=6
8b
8a
8e
8d
=7
2B}
==
!!!AGN: Xiaodiao. Qingge, Aisu
!!!ONB: ESAC (Essen Associative Code) Database: CHINA
!!!AMT: simple duple
!!!AIN: vox
!!!EED: Helmut Schaffrath
!!!EEV: 1.0
*-
